X: 41086
T: Trip To Pakistan, The
R: reel
M: 4/4
K: Bminor
|:BdfB d3 f|e3 d cdec|BdfB d3 f|edcd B2BA:|
|:Bdfd g3 e|f3 a edcd|Bdfd g3 e|fedf e4:|
|:cdfc dfcd|BcdB cdcB|AceA ceAe|edcd B4:|
|:BdfB d3 f|e3 f edcd|BdfB d3 f|edcd B2BA:|
|:Bdfd g3 e|f3 a edcd|Bdfd g3 e|fedf e4:|
|:cdfc dfcd|BcdB cdcB|AceA ceAe|edcd B4:|
|:BdfB d3 f|e3 f edec|BdfB d3 f|edcd B2BA:|
|:Bdfd g3 a|f3 a edcd|Bdfd g3 a|fedf e4:|
cdfc dfcd|BcdB cdcB|AceA ceAe|edcd B2 Bc|
cdfc dfcd|BcdB cdcB|AceA ceAe|edcd B z3|

